symbols/web/content_copy/materialsymbolsrounded/content_copy_grad200fill1_24px.svg

<svg xmlns="http://www.w3.org/2000/svg" height="24" width="24"><path d="M9.575 18.1q-1.125 0-1.887-.763-.763-.762-.763-1.887V3.25q0-1.125.763-1.888Q8.45.6 9.575.6h9.15q1.125 0 1.888.762.762.763.762 1.888v12.2q0 1.125-.762 1.887-.763.763-1.888.763Zm-5.3 5.3q-1.125 0-1.887-.763-.763-.762-.763-1.887V6.825q0-.55.388-.938Q2.4 5.5 2.95 5.5t.938.387q.387.388.387.938V20.75H15.15q.55 0 .938.387.387.388.387.938 0 .55-.387.937-.388.388-.938.388Z"/></svg>

<svg xmlns="http://www.w3.org/2000/svg" height="24" width="24"><path d="M9.575 18.1Q8.45 18.1 7.688 17.337Q6.925 16.575 6.925 15.45V3.25Q6.925 2.125 7.688 1.362Q8.45 0.6 9.575 0.6H18.725Q19.85 0.6 20.613 1.362Q21.375 2.125 21.375 3.25V15.45Q21.375 16.575 20.613 17.337Q19.85 18.1 18.725 18.1ZM4.275 23.4Q3.15 23.4 2.388 22.637Q1.625 21.875 1.625 20.75V6.825Q1.625 6.275 2.013 5.887Q2.4 5.5 2.95 5.5Q3.5 5.5 3.888 5.887Q4.275 6.275 4.275 6.825V20.75Q4.275 20.75 4.275 20.75Q4.275 20.75 4.275 20.75H15.15Q15.7 20.75 16.088 21.137Q16.475 21.525 16.475 22.075Q16.475 22.625 16.088 23.012Q15.7 23.4 15.15 23.4Z"/></svg>
